assets/icons/standard/action_list_component.svg

<?xml version="1.0"?><svg xmlns="http://www.w3.org/2000/svg" width="100" height="100" viewBox="0 0 100 100"><path fill="#fff" d="m48.2 63.9h29.9c1.1 0 2 0.9 2 2v4c0 1.1-0.9 2-2 2h-29.9c-1.1 0-2-0.9-2-2v-4c0-1.1 0.9-2 2-2z m0-17.9h29.9c1.1 0 2 0.9 2 2v4c0 1.1-0.9 2-2 2h-29.9c-1.1 0-2-0.9-2-2v-4c0-1.1 0.9-2 2-2z m0-17.8h29.9c1.1 0 2 0.9 2 2v4c0 1.1-0.9 2-2 2h-29.9c-1.1 0-2-0.9-2-2v-4c0-1.1 0.9-2 2-2z m-19.2 0c-2.2 0-4 1.8-4 4s1.8 4 4 4 4-1.8 4-4-1.8-4-4-4z m0 35.7c-2.2 0-4 1.8-4 4s1.8 4 4 4 4-1.8 4-4-1.8-4-4-4z m0-22.9c-5 0-9 4-9 9s4 9 9 9 9-4 9-9-4-9-9-9z m0 12c-1.7 0-3-1.4-3-3 0-1.7 1.4-3 3-3s3 1.4 3 3c0 1.7-1.3 3-3 3z"></path></svg>

<svg xmlns="http://www.w3.org/2000/svg" x="0px" y="0px"
	 width="100px" height="100px" viewBox="0 0 100 100" enable-background="new 0 0 100 100" xml:space="preserve">
<path fill="#FFFFFF" d="M48.2,63.9h29.9c1.1,0,2,0.9,2,2v4c0,1.1-0.9,2-2,2H48.2c-1.1,0-2-0.9-2-2v-4C46.2,64.8,47.1,63.9,48.2,63.9
	z"/>
<path fill="#FFFFFF" d="M48.2,46h29.9c1.1,0,2,0.9,2,2v4c0,1.1-0.9,2-2,2H48.2c-1.1,0-2-0.9-2-2v-4C46.2,46.9,47.1,46,48.2,46z"/>
<path fill="#FFFFFF" d="M48.2,28.2h29.9c1.1,0,2,0.9,2,2v4c0,1.1-0.9,2-2,2H48.2c-1.1,0-2-0.9-2-2v-4C46.2,29.1,47.1,28.2,48.2,28.2
	z"/>
<path fill="#FFFFFF" d="M29,28.2c-2.2,0-4,1.8-4,4c0,2.2,1.8,4,4,4s4-1.8,4-4C33,30,31.2,28.2,29,28.2z"/>
<path fill="#FFFFFF" d="M29,63.9c-2.2,0-4,1.8-4,4c0,2.2,1.8,4,4,4s4-1.8,4-4C33,65.7,31.2,63.9,29,63.9z"/>
<path fill="#FFFFFF" d="M29,41c-5,0-9,4-9,9c0,5,4,9,9,9s9-4,9-9C38,45,34,41,29,41z M29,53c-1.7,0-3-1.4-3-3c0-1.7,1.4-3,3-3
	s3,1.4,3,3C32,51.7,30.7,53,29,53z"/>
</svg>
